X:1
T:At the Cross
T:At the Cross
T:Rufus Henry Cornelius
T:Eden Reeder Latta, 1900
T:Public Domain Courtesy of the Cyber Hymnal™
T:Public Domain Courtesy of the Cyber Hymnal™
C:Rufus Henry Cornelius
Z:Public Domain
Z:Courtesy of the Cyber Hymnal™
%%score ( 1 2 ) ( 3 4 )
L:1/8
Q:1/4=92
M:4/4
K:Eb
V:1 treble 
V:2 treble 
V:3 bass 
V:4 bass 
V:1
 [EG][FA] | [GB][GB][Ac][GB] [EG]2 [DF]>[DF] | E6 E[EF] | [EG][EG][EG][FA] [GB]2 [Ac]>[GB] | %4
w: 1.~There is|par- don, full and free, At the|cross, What- so-|e’er our sins may be, At the|
w: 2.~There’s a|peace that none can tell, At the|cross, In the|Sav- ior’s “all is well!” At the|
w: 3.~There’s a|joy that all may feel, At the|cross, If in|hum- ble faith they kneel, At the|
w: 4.~There’s a|hope that will en- dure, At the|cross, It is|like an an- chor sure, At the|
 B6 [EG][EB] | [Ge][Ge][Ge][Ac] [GB]2 [EG][EG] | [DA][DA][EB][EB] [Ec]2 [Ec][Ec] | %7
w: cross; Let us|now the Lord en- treat, With our|bur- dened souls to meet, And be-|
w: cross; Let us|seek that peace to prove, That is|show- ered from a- bove Thro’ the|
w: cross; Let us|taste that joy so great, Ere it|be for us too late, Mer- cy|
w: cross; Let us|now that hope ob- tain, That shalt|ne- ver prove in vain, While be-|
 [EB][EB][EB][Ec] [EB]2 [DG]>[DF] | E6 |:"^Refrain" [EG]>[FA] | B6 [Ac]>[Ad] | e6 [Ge][Ac] |1 %12
w: stow that par- don sweet, At the|cross.||||
w: Mas- ter’s dy- ing love, At the|cross.|At the|cross, at the|cross, There’s re-|
w: will not al- ways wait, At the|cross.||||
w: liev- ing we re- main At the|cross.||||
 [GB][GB][GB][Ac] [GB]2 [EG]>[EG] | [DF]6 :|2 [GB][Ac] [GB]2 [EG]>[DF] || E6 x2 |] %16
w: ||||
w: demp- tion there for me, At the|cross.|there for me, At the|cross.|
w: ||||
w: ||||
V:2
 x2 | x8 | (E2 C>C B,2) E x | x8 | (F2 D>E F2) x2 | x8 | x8 | x8 | (E2 C>C B,2) |: x2 | %10
 (GGA>A G2) x2 | (GGA>A G2) x2 |1 x8 | x6 :|2 x6 || (EB,C>C B,2) x2 |] %16
V:3
 [E,B,][E,B,] | [E,E][E,E][E,E][E,E] [E,B,]2 [B,,A,]>[B,,A,] | (G,2 A,>A, G,2) [E,G,][E,A,] | %3
w: ~ ~|~ ~ ~ ~ ~ ~ ~|~ * * * ~ ~|
 [E,B,][E,B,][E,B,][E,B,] [E,E]2 [E,E]>[E,E] | (D2 B,>C D2) [E,B,][E,G,] | %5
w: ~ ~ ~ ~ ~ ~ ~|~ * * * ~ ~|
 [E,B,][E,B,][E,B,][E,E] [E,E]2 [E,B,][E,B,] | [F,B,][F,B,][G,B,][G,B,] A,2 A,A, | %7
w: ~ ~ ~ ~ ~ ~ ~|~ ~ ~ ~ ~ ~ ~|
 [E,G,][E,G,][E,G,][E,A,] [E,G,]2 [B,,B,]>[B,,A,] | (G,2 A,>A, G,2) |: [E,G,B,]>[E,F,B,] | %10
w: ~ ~ ~ ~ ~ ~ ~|~ * * *|There’s re-|
 [E,E][E,E] [B,,D]>[B,,D] [E,E]2 [B,D]>B, | [E,B,][E,B,] [A,C]>[A,C] [E,B,]2 [E,B,][G,E] |1 %12
w: demp- tion there for thee, There’s re-|demp- tion there for thee, ~ ~|
 [E,E][E,E][E,E][E,E] [E,E]2 [E,B,]>[E,B,] | B,6 :|2 [E,E][A,E] [B,E]2 [B,,B,]>[B,,A,] || %15
w: ~ ~ ~ ~ ~ ~ ~|~|At the cross; ~ ~|
 G,2 G,2 x4 |] %16
w: ~ ~|
V:4
 x2 | x8 | E,6 x2 | x8 | B,,6 x2 | x8 | x4 A,2 A,A, | x8 | E,6 |: x2 | x15/2 B,/ | x8 |1 x8 | %13
 B,,2 B,>B, (B,A,) :|2 x6 || E,6 A,>A, |] %16

